!!!COA:	Josquin des Prez
!!!CDT:	~1450-1521/08/27
!!!OTL:	Letare nova Syon
!!!AGN:	Motet
!!!SCT:	NJE 17.12
!!!SCA:	New Josquin Edition 17.12
!!!voices:	4
**kern	**kern	**kern	**kern
*staff4	*staff3	*staff2	*staff1
*Ivox	*Ivox	*Ivox	*Ivox
*I"Bassus	*I"Tenor	*I"Altus	*I"Superius
*I'B	*I'T	*I'A	*I'S
*clefF4	*clefGv2	*clefG2	*clefG2
*k[]	*k[]	*k[]	*k[]
*M2/1	*M2/1	*M2/1	*M2/1
*met(C|)	*met(C|)	*met(C|)	*met(C|)
*>A	*>A	*>A	*>A
=1-	=1-	=1-	=1-
0r	1G	0r	1r
.	[1c	.	1g
=2	=2	=2	=2
1C	1c]	1r	0cc
[1F	1A	1c	.
=3	=3	=3	=3
1F]	1A	0f	1a
1D	[1d	.	1a
=4	=4	=4	=4
1D	2d\]	1d	1.dd
.	2c\	.	.
[1G	2B\	1d	.
.	2A/	.	2cc\
=5	=5	=5	=5
2G\]	1G	1.g	2b\
2F\	.	.	2a/
2E\	1r	.	1g
2D\	.	2f/	.
=6	=6	=6	=6
1C	1G	1.e	1r
1r	[1c	.	1g
.	.	2d/	.
=7	=7	=7	=7
1C	1c]	1c	0cc
[1F	1A	2r	.
.	.	2c/	.
=8	=8	=8	=8
1F]	2r	0f	0a
.	2A/	.	.
1D	[1d	.	.
=9	=9	=9	=9
0A	2d\]	0e	1a
.	4c\	.	.
.	4B\	.	.
.	2.c\	.	1a
.	4d\	.	.
=10	=10	=10	=10
1.G	1.d	1.g	1.b
2D\	2d\	2f/	[2a/
=11	=11	=11	=11
2E\	2B\	1e	4a/]
.	.	.	4g/
2C/	2c\	.	1g
1D	1A	1d	.
.	.	.	2f#i/
=12	=12	=12	=12
2.G\	0G	2r	0g
.	.	2d/	.
4A\	.	.	.
2B\	.	2d/	.
[2G\	.	2d/	.
=13	=13	=13	=13
4G\]	2r	1e	0r
4F\	.	.	.
4E\	2G/	.	.
4D\	.	.	.
1E	2G/	[1g	.
.	2G/	.	.
=14	=14	=14	=14
1D	1A	2g/]	1r
.	.	2f/	.
1r	[1c	1e	2r
.	.	.	2g/
=15	=15	=15	=15
0r	2c\]	2.d/	2g/
.	2B\	.	2g/
.	.	4e/	.
.	1A	2f/	2a/
.	.	[2e/	[2cc\
=16	=16	=16	=16
0r	1G	4e/]	2cc\]
.	.	4d/	.
.	.	1g	2b\
.	2r	.	1a
.	2d\	2f#i/	.
=17	=17	=17	=17
2r	2e\	1g	1.g
2G\	2d\	.	.
2G\	[1g	1r	.
2G\	.	.	2r
=18	=18	=18	=18
1A	2g\]	1c	1r
.	2f\	.	.
[1c	2e\	1g	2r
.	2d\	.	2g/
=19	=19	=19	=19
2c\]	1c	2e/	2g/
2B\	.	1g	2g/
1A	2r	.	2a/
.	4c\	2f/	[2cc\
.	4d\	.	.
=20	=20	=20	=20
1G	4e\	2g/	2cc\]
.	4f\	.	.
.	1g	2G/	2b\
2r	.	1d	1a
2D\	2f#i\	.	.
=21	=21	=21	=21
2E\	1g	2.G/	1g
2C/	.	.	.
.	.	4A/	.
2.G\	2r	4B/	1g
.	.	4c/	.
.	2G/	[2d/	.
4F\	.	.	.
=22	=22	=22	=22
1E	2G/	2d/]	2g/
.	2G/	2c/	1g
1D	1A	1d	.
.	.	.	2f/
=23	=23	=23	=23
0r	1.c	2r	2g/
.	.	2g/	2e/
.	.	2g/	1d
.	2B\	[2g/	.
=24	=24	=24	=24
1r	1A	2g/]	2r
.	.	2f/	2a/
2r	1G	2g/	2b\
2G\	.	2e/	2g/
=25	=25	=25	=25
2G\	2r	1d	1b
1G	2d\	.	.
.	2d\	1r	1a
2F\	[2d\	.	.
=26	=26	=26	=26
2G\	2d\]	1r	2r
2E\	2c\	.	2g/
[1D	2d\	2r	2g/
.	2B\	2d/	[2g/
=27	=27	=27	=27
1D]	2A/	2d/	2g/]
.	2A/	1d	2f/
1r	2B\	.	2g/
.	2A/	2c/	2e/
=28	=28	=28	=28
0r	2B\	2d/	[0d
.	1G	2B/	.
.	.	2A/	.
.	2F#i/	2A/	.
=29	=29	=29	=29
2r	2.G/	2B/	1d]
2G\	.	2.G/	.
.	4A/	.	.
2G\	4B\	.	2.d/
.	4c\	4A/	.
[2G\	[2d\	4B/	.
.	.	4c/	4e/
=30	=30	=30	=30
2G\]	4d\]	4d/	4f/
.	4c\	4e/	4g/
2F\	2A/	2f/	2.a/
2G\	2B\	2d/	.
.	.	.	4g/
2E\	2G/	2c/	[2g/
=31	=31	=31	=31
1D	1A	2d/	2g/]
.	.	2d/	2f#i/
1r	[1G	1B	[1g
=32	=32	=32	=32
1.d	0G_	1r	0g_
.	.	[1d	.
2c\	.	.	.
=33	=33	=33	=33
1B	0G_	2d/]	1g]
.	.	2c/	.
[1d	.	1B	1r
=34	=34	=34	=34
2d\]	1G]	1.d	0r
2c\	.	.	.
2B\	1r	.	.
2A\	.	2c/	.
=35	=35	=35	=35
2G\	0r	2B/	1r
2F\	.	2.A/	.
2.G\	.	.	[1dd
.	.	4G/	.
.	.	[2g/	.
4B-i\	.	.	.
=36	=36	=36	=36
1A	1r	4g/]	2dd\]
.	.	4e/	.
.	.	2f#i/	2cc\
1G	[1g	1g	1b
=37	=37	=37	=37
0r	2g\]	0r	1.dd
.	2f\	.	.
.	1e	.	.
.	.	.	2cc\
=38	=38	=38	=38
0r	1.g	0r	2b\
.	.	.	4a/
.	.	.	4g/
.	.	.	2b\
.	2f\	.	4a/
.	.	.	4b\
=39	=39	=39	=39
2r	2e\	0r	4cc\
.	.	.	4dd\
1A	2c\	.	2.ee\
.	1f	.	.
.	.	.	4dd\
2F\	.	.	[2dd\
=40	=40	=40	=40
2G\	1e	2r	2dd\]
2A\	.	1a	2cc#i\
1D	1d	.	[1dd
.	.	2f/	.
=41	=41	=41	=41
0r	2r	2g/	1dd]
.	1d	2a/	.
.	.	2d/	2r
.	2B\	[2g/	2dd\
=42	=42	=42	=42
1r	2c\	2g/]	2cc\
.	2d\	2f/	2a/
2r	[1G	2g/	2b\
[2d\	.	[2b\	2g/
=43	=43	=43	=43
2d\]	1G]	4b\]	1b
.	.	4a/	.
2B\	.	1g	.
2c\	2r	.	1a
2d\	[2d\	2f#i/	.
=44	=44	=44	=44
1G	2d\]	4g/	1g
.	.	4a/	.
.	2B\	4b\	.
.	.	4g/	.
1r	2c\	1a	2r
.	2d\	.	[2dd\
=45	=45	=45	=45
0r	2G/	1g	2dd\]
.	1e	.	2b\
.	.	1r	2cc\
.	2d\	.	[2dd\
=46	=46	=46	=46
1r	2B\	2r	4dd\]
.	.	.	4cc\
.	2c\	2e/	1cc
1G	1d	[1g	.
.	.	.	2b\
=47	=47	=47	=47
1.c	1c	2g/]	1cc
.	.	2f/	.
.	1r	2e/	1r
2B\	.	2d/	.
=48	=48	=48	=48
2.A\	0r	2c/	1r
.	.	2.e/	.
4G\	.	.	.
2F\	.	.	1cc
.	.	4d/	.
2E\	.	[2c/	.
=49	=49	=49	=49
1D	1d	2c/]	1.ff
.	.	2B/	.
1C	[1g	1c	.
.	.	.	2ee\
=50	=50	=50	=50
0r	2g\]	0r	2dd\
.	2f\	.	2dd\
.	2e\	.	2cc\
.	2d\	.	[2dd\
=51	=51	=51	=51
1r	2B\	2r	4dd\]
.	.	.	4cc\
.	2c\	2e/	1cc
1G	1d	[1g	.
.	.	.	2b\
=52	=52	=52	=52
1.c	1c	2g/]	1cc
.	.	2f/	.
.	1r	2e/	1r
2B\	.	2d/	.
=53	=53	=53	=53
2.A\	0r	2c/	1r
.	.	2.e/	.
4G\	.	.	.
2F\	.	.	1cc
.	.	4d/	.
2E\	.	[2c/	.
=54	=54	=54	=54
1D	1d	2c/]	1.ff
.	.	2B/	.
1C	[1g	1c	.
.	.	.	2ee\
=55	=55	=55	=55
1r	2g\]	2r	2dd\
.	2f\	2d/	2dd\
2r	2e\	2g/	2cc\
2G\	2d\	2g/	[2dd\
=56	=56	=56	=56
2c\	2e\	1a	4dd\]
.	.	.	4cc\
2F\	2f\	.	1cc
1G	1d	1g	.
.	.	.	2b\
=57	=57	=57	=57
*M3/1	*M3/1	*M3/1	*M3/1
*met(C|3)	*met(C|3)	*met(C|3)	*met(C|3)
0C	0c	0g	0cc
1r	1r	1r	1r
=58	=58	=58	=58
1G	1d	1g	1b
1G	1d	1g	1b
1G	1d	1g	1b
=59	=59	=59	=59
0B-	0G	0d	0g
[1A	[1c	[1c	[1f
=60	=60	=60	=60
1A]	1c]	1c]	1f]
1.G	1.B	1.d	1.g
2G\	2B\	2d/	2g/
=61	=61	=61	=61
1F	1A	1d	1a
1G	1B	1d	1g
1E	1G	1c	1g
=62	=62	=62	=62
0D	0A	0d	0f
1r	1r	1r	1r
=63	=63	=63	=63
1G	1B	1d	1g
1G	1B	1d	1g
1G	1B	1d	1g
=64	=64	=64	=64
0B-	0G	0d	0g
[1A	[1c	[1c	[1f
=65	=65	=65	=65
1A]	1c]	1c]	1f]
1.G	1.B	1.d	1.g
2G\	2B\	2d/	2g/
=66	=66	=66	=66
1F	1A	1d	1a
1G	1B	1d	1g
1E	1G	1c	1g
=67	=67	=67	=67
*M2/1	*M2/1	*M2/1	*M2/1
*met(C|)	*met(C|)	*met(C|)	*met(C|)
2.D\	[0A	1.d	1f
4E\	.	.	.
4F\	.	.	2r
4G\	.	.	.
[2F\	.	2A/	[2a/
=68	=68	=68	=68
2F\]	0A]	1f	2a/]
4E\	.	.	1dd
4D\	.	.	.
1A	.	1e	.
.	.	.	2cc\
=69	=69	=69	=69
1D	0r	2r	2.ff\
.	.	1d	.
.	.	.	4ee\
1r	.	.	2dd\
.	.	[2a/	2cc\
=70	=70	=70	=70
0r	1r	2a/]	1b
.	.	2g/	.
.	2r	2f/	[1a
.	[2A/	2e/	.
=71	=71	=71	=71
0r	2A/]	2.f/	0a_
.	1d	.	.
.	.	4d/	.
.	.	1e	.
.	2c\	.	.
=72	=72	=72	=72
2r	2.f\	1d	1a]
1D	.	.	.
.	4e\	.	.
.	2d\	1r	1r
[2A\	2c\	.	.
=73	=73	=73	=73
2A\]	1B	0r	1r
2G\	.	.	.
2.c\	1A	.	2r
.	.	.	2e/
4B\	.	.	.
=74	=74	=74	=74
2A\	0r	2r	2f/
2G\	.	1G	2.g/
1B-	.	.	.
.	.	.	4f/
.	.	[2d/	4e/
.	.	.	4d/
=75	=75	=75	=75
1A	2r	2d/]	1e
.	1A	2c/	.
1D	.	1f	1d
.	[2d\	.	.
=76	=76	=76	=76
0r	2d\]	1e	0a
.	2c\	.	.
.	2.f\	2r	.
.	.	2d/	.
.	4e\	.	.
=77	=77	=77	=77
0r	2d\	2f/	2r
.	2c\	2e/	1a
.	1d	1f	.
.	.	.	[2dd\
=78	=78	=78	=78
0r	1A	1e	2dd\]
.	.	.	2cc\
.	2r	4d/	2.ff\
.	.	4e/	.
.	2d\	4f/	.
.	.	4g/	4ee\
=79	=79	=79	=79
0r	2.f\	2.a/	2dd\
.	.	.	2cc\
.	4e\	4g/	.
.	2d\	2f/	2b-\
.	2c\	[2e/	[2a/
=80	=80	=80	=80
1r	1B-i	2e/]	2a/]
.	.	2d/	2g/
2r	2A/	2e/	1a
2A\	2c\	2e/	.
=81	=81	=81	=81
2.B-\	2.d\	2.g/	0r
4A\	4c\	4f/	.
2G\	2B-i\	2e/	.
2F\	2A/	2d/	.
=82	=82	=82	=82
1E	1G	2c/	2r
.	.	4B/	2ee\
.	.	4c/	.
1D	2A/	4d/	2.ff\
.	.	4e/	.
.	2d\	4f/	.
.	.	4g/	4ee\
=83	=83	=83	=83
0r	2.f\	2.a/	2dd\
.	.	.	2cc\
.	4e\	4g/	.
.	2d\	2f/	2b-i\
.	2c\	[2e/	2a/
=84	=84	=84	=84
1r	1B-i	2e/]	2a/
.	.	2d/	2g/
2r	1A	2e/	2a/
2A\	.	2c/	[2f/
=85	=85	=85	=85
2.B-i\	2r	1.d	2f/]
.	2G/	.	1g
4A\	.	.	.
2G\	2B-i\	.	.
2F\	[2A/	2d/	[2a/
=86	=86	=86	=86
1E	2A/]	2e/	4a/]
.	.	.	4g/
.	2G/	2c/	1g
1D	1A	1d	.
.	.	.	2f#i/
=87	=87	=87	=87
2r	0G	1B	[0g
2G\	.	.	.
2.B-\	.	2r	.
.	.	2g/	.
4A\	.	.	.
=88	=88	=88	=88
2G\	2r	2.b-\	1g]
2F\	2d\	.	.
.	.	4a/	.
2E-i\	[1e-i	2g/	2r
2D\	.	2f/	2b-i\
=89	=89	=89	=89
0C	2e-\]	0e-i	2.cc\
.	2d\	.	.
.	.	.	4b-i\
.	2c\	.	2a/
.	2B-i\	.	2g/
=90	=90	=90	=90
0D	2.A/	[0dl	2f/
.	.	.	1g
.	4G/	.	.
.	1A	.	.
.	.	.	2f#i/
=91	=91	=91	=91
0Gl	0Gl	0d]	0gl
!!LO:LB:i:g=z
=92||	=92||	=92||	=92||
*>B	*>B	*>B	*>B
!!section: Secunda Pars: Cantate canticum
!!!OMD: Secunda Pars: Cantate canticum
*k[]	*k[]	*k[]	*k[]
*M2/1	*M2/1	*M2/1	*M2/1
*met(C|)	*met(C|)	*met(C|)	*met(C|)
0r	0r	0r	1dd
.	.	.	2b\
.	.	.	2cc\
=93	=93	=93	=93
0r	0r	1r	2dd\
.	.	.	2ee\
.	.	1g	1dd
=94	=94	=94	=94
0r	0r	2e/	2r
.	.	2f/	2dd\
.	.	2g/	2b\
.	.	2a/	2cc\
=95	=95	=95	=95
0r	1r	1g	2dd\
.	.	.	2ee\
.	1d	1f	[1dd
=96	=96	=96	=96
0r	2B\	2d/	2dd\]
.	2c\	2e/	4cc\
.	.	.	4b\
.	2d\	2f/	2a/
.	2e\	2g/	2g/
=97	=97	=97	=97
1r	0d	1f	1a
1G	.	[1g	2r
.	.	.	2b\
=98	=98	=98	=98
2E\	2r	2g/]	2b\
2F\	2d\	4f/	2a/
.	.	4e/	.
2G\	2B\	2d/	2g/
2A\	2c\	2c/	2f/
=99	=99	=99	=99
1G	2d\	4B/	1g
.	.	4G/	.
.	2e\	1g	.
1r	[1d	.	1a
.	.	2f#i/	.
=100	=100	=100	=100
1G	1d]	1.g	2g/
.	.	.	2b\
2E\	2r	.	2b\
2F\	2d\	4f/	2a/
.	.	4e/	.
=101	=101	=101	=101
2G\	2B\	2d/	2g/
2A\	2c\	2c/	2f/
[1G	2d\	2B/	1g
.	2e\	[2G/	.
=102	=102	=102	=102
0G]	1d	4G/]	0b
.	.	4A/	.
.	.	4B/	.
.	.	4G/	.
.	[1g	[1d	.
=103	=103	=103	=103
1D	2g\]	1d]	[0a
.	2f\	.	.
[1D	[1f	1d	.
=104	=104	=104	=104
1D]	2f\]	2r	0a_
.	4e\	2d/	.
.	4d\	.	.
1r	1e	2d/	.
.	.	2c/	.
=105	=105	=105	=105
0r	2r	2d/	0a_
.	2d\	2d/	.
.	2d\	1A	.
.	2c\	.	.
=106	=106	=106	=106
2r	2d\	1f	0a]
2d\	2d\	.	.
2d\	2A/	2e/	.
2c\	2e\	2a/	.
=107	=107	=107	=107
2d\	2.f\	2a/	2r
2d\	.	2f/	2dd\
.	4d\	.	.
1A	2e\	1a	2dd\
.	2e\	.	2cc\
=108	=108	=108	=108
0r	2d\	2r	2dd\
.	2G/	2g/	2dd\
.	1d	2g/	1a
.	.	2f/	.
=109	=109	=109	=109
2r	2c\	2g/	2r
2G\	2B\	2g/	2b\
2G\	2G/	1d	2b\
2F\	2A/	.	[2a/
=110	=110	=110	=110
2G\	2.B\	2r	4a/]
.	.	.	4g/
2G\	.	2B/	1g
.	8A/L	.	.
.	8G/J	.	.
1D	2A/	2.d/	.
.	2A/	.	2f#i/
.	.	4d/	.
=111	=111	=111	=111
0r	0G	2d/	1g
.	.	2e/	.
.	.	2B/	2r
.	.	[2d/	2b\
=112	=112	=112	=112
0r	0r	4d/]	2.dd\
.	.	4G/	.
.	.	1G	.
.	.	.	4dd\
.	.	.	2dd\
.	.	2g/	2ee\
=113	=113	=113	=113
0r	1r	2a/	2cc\
.	.	2b\	2dd\
.	2r	2g/	2b\
.	2B\	[2b\	[2dd\
=114	=114	=114	=114
0r	2.d\	2b\]	2dd\]
.	.	4a/	4cc\
.	4d\	4g/	4b\
.	2d\	2f/	2a/
.	2e\	[2g/	2g/
=115	=115	=115	=115
1r	2c\	2g/]	1a
.	2d\	2f#i/	.
2r	2B\	2.g/	[1g
2E\	[2c\	.	.
.	.	4fni/	.
=116	=116	=116	=116
2.G\	2c\]	2e/	1g]
.	4B\	2d/	.
4G\	4A/	.	.
2G\	2B\	1e	1r
2A\	2c\	.	.
=117	=117	=117	=117
2F\	2A/	1d	0r
2G\	2B\	.	.
2E\	2.G/	1r	.
[2G\	.	.	.
.	4A/	.	.
=118	=118	=118	=118
4G\]	4B\	1r	0r
4F\	4c\	.	.
4E\	1d	.	.
4D\	.	.	.
1E	.	1G	.
.	2c\	.	.
=119	=119	=119	=119
1D	2B\	1.d	2r
.	2A/	.	2d/
1r	2B\	.	[1g
.	2G/	2B/	.
=120	=120	=120	=120
2r	1A	2c/	2g/]
2D\	.	2d/	2f#i/
2.E\	2r	1G	1g
.	[2G/	.	.
4F\	.	.	.
=121	=121	=121	=121
1.G	2G/]	1r	1b
.	1d	.	.
.	.	1d	1a
2F\	2A/	.	.
=122	=122	=122	=122
1E	2B\	1.g	1r
.	2c\	.	.
1D	1d	.	2r
.	.	2f/	2a/
=123	=123	=123	=123
1r	2r	2g/	2b\
.	2A/	2a/	2cc\
2r	2B\	1d	2.dd\
2D\	2A/	.	.
.	.	.	4cc\
=124	=124	=124	=124
2.E\	2.G/	2r	4b\
.	.	.	4a/
.	.	2G/	1b
4F\	4A/	.	.
[1G	4B\	4G/	.
.	4c\	4A/	.
.	2d\	4B/	4a/
.	.	4c/	4g/
=125	=125	=125	=125
2G\]	2G/	2d/	2b\
2F\	2A/	2d/	2a/
1E	2B\	2e/	1g
.	4A/	2c/	.
.	4G/	.	.
=126	=126	=126	=126
1D	2B-\	1d	1f
.	2A/	.	.
2r	2r	2r	2r
[2D\	[2d\	[2f/	[2a/
=127	=127	=127	=127
2D\]	2d\]	2f/]	2a/]
2D\	2d\	2f/	2a/
2D\	2d\	2f/	2a/
2D\	2d\	2f/	2b\
=128	=128	=128	=128
4C/	1e	1g	2.cc\
4D\	.	.	.
4E\	.	.	.
4F\	.	.	4cc\
2G\	2d\	2g/	2b\
2A\	[2c\	2e/	[2a/
=129	=129	=129	=129
2F\	2c\]	2f/	4a/]
.	.	.	4g/
2G\	2B\	2.e/	1g
1A	1c	.	.
.	.	4d/	.
.	.	2c/	2f#i/
=130	=130	=130	=130
*M3/1	*M3/1	*M3/1	*M3/1
*met(C|3)	*met(C|3)	*met(C|3)	*met(C|3)
0G	0d	0B	0g
1r	1r	1r	1r
=131	=131	=131	=131
1.G	1.d	1.g	1.b
2G\	2d\	2g/	2b\
1G	1d	1g	1b
=132	=132	=132	=132
1G	1d	1g	1b
0C	0c	0g	0ee
=133	=133	=133	=133
1G	1B	1g	1dd
0A	0c	2e/	0cc
.	.	2d/	.
.	.	2e/	.
.	.	2f/	.
=134	=134	=134	=134
0G	0d	1g	1b
.	.	1g	1dd
1r	1r	1f	1dd
=135	=135	=135	=135
0.r	0.r	1g	1b
.	.	1e	1cc
.	.	1f	1dd
=136	=136	=136	=136
1r	1r	0g	0b
1G	1d	.	.
1F	1d	1r	1r
=137	=137	=137	=137
1G	1B	0.r	0.r
1E	1c	.	.
1F	1d	.	.
=138	=138	=138	=138
1G	1B	1r	1r
1.D	1.d	1.f	1.a
2D\	2d\	2f/	2a/
=139	=139	=139	=139
0D	0d	0f	0a
1F	1c	1f	1a
=140	=140	=140	=140
1G	1B	0d	1g
1F	1A	.	1.a
1E	1B	[1e	.
.	.	.	2g/
=141	=141	=141	=141
1C	1c	1e]	0g
0D	0A	0d	.
.	.	.	1f#i
=142	=142	=142	=142
*M2/1	*M2/1	*M2/1	*M2/1
*met(C|)	*met(C|)	*met(C|)	*met(C|)
0G	1G	1.B	0g
.	2r	.	.
.	[2B\	2G/	.
=143	=143	=143	=143
2r	2B\]	1G	0r
2E\	2c\	.	.
2F\	2d\	1r	.
[2G\	2d\	.	.
=144	=144	=144	=144
2G\]	2.d\	0r	0r
2G\	.	.	.
.	4d\	.	.
2F\	2d\	.	.
2G\	[2e\	.	.
=145	=145	=145	=145
1B-	4e\]	2r	0r
.	4d\	.	.
.	1d	2d/	.
1A	.	2e/	.
.	2c\	2f/	.
=146	=146	=146	=146
1G	1d	1.g	2r
.	.	.	1b
1r	1r	.	.
.	.	4f/	2cc\
.	.	4e/	.
=147	=147	=147	=147
0r	0r	2f/	2dd\
.	.	2g/	2dd\
.	.	2d/	2.dd\
.	.	2g/	.
.	.	.	4dd\
=148	=148	=148	=148
2r	0r	2f/	2dd\
2G\	.	2.g/	2.ee\
2G\	.	.	.
.	.	4f/	4dd\
2F\	.	2d/	[2dd\
=149	=149	=149	=149
2G\	1r	1e	2dd\]
2A\	.	.	2cc#i\
[1B-	2r	[1d	1dd
.	2G/	.	.
=150	=150	=150	=150
2B-\]	2G/	0d_	0r
2A\	2F/	.	.
2B-i\	2G/	.	.
2F\	2A/	.	.
=151	=151	=151	=151
1G	1.B-	0d_	2r
.	.	.	2g/
1D	.	.	2g/
.	2A/	.	2g/
=152	=152	=152	=152
0r	2B-i\	1d]	2g/
.	2F/	.	2a/
.	4G/	2r	[1b-
.	4A/	.	.
.	4B-i\	2g/	.
.	4c\	.	.
=153	=153	=153	=153
0r	1d	2g/	2b-\]
.	.	2f/	2a/
.	1r	2g/	2b-i\
.	.	2a/	2f/
=154	=154	=154	=154
0r	0r	1.b-	2g/
.	.	.	1dd
.	.	2a/	2cc\
=155	=155	=155	=155
0r	2r	2b-i\	2.dd\
.	2d\	4f/	.
.	.	4e/	4cc\
.	2d\	4f/	4a/
.	.	4g/	4b-i\
.	2c\	[2a/	4cc\
.	.	.	4a/
=156	=156	=156	=156
1r	2d\	2a/]	1b-i
.	2e\	2g/	.
2r	2e\	1a	1a
2D\	[2d\	.	.
=157	=157	=157	=157
2D\	4d\]	1r	2r
.	4A/	.	.
2C/	2c\	.	2a/
2D\	1B	2r	2a/
2E\	.	2e/	2a/
=158	=158	=158	=158
1F	0A	2c/	2a/
.	.	2d/	2a/
1r	.	2e/	[1cc
.	.	2f/	.
=159	=159	=159	=159
1r	0r	2.e/	2cc\]
.	.	.	2b\
.	.	4e/	.
2r	.	2f/	2a/
2G\	.	[2e/	[2g/
=160	=160	=160	=160
2G\	0r	4e/]	4g/]
.	.	4d/	4f/
2F\	.	1d	2d/
2G\	.	.	1e
2A\	.	2c#i/	.
=161	=161	=161	=161
2B-\	2r	2d/	2d/
1G	2d\	2g/	2b-i\
.	2d\	2g/	2b-\
2A\	2c\	2f/	2cc\
=162	=162	=162	=162
2G\	2d\	2g/	2b-i\
2F\	2f\	2a/	2a/
2G\	1d	[1b-	[1dd
[2B-\	.	.	.
=163	=163	=163	=163
4B-\]	2.f\	2b-\]	2dd\]
4A\	.	.	.
2F\	.	2a/	2cc\
.	4e\	.	.
2G\	1d	2g/	2b-i\
2D\	.	[2f/	[2a/
=164	=164	=164	=164
2F\	2c\	4f/]	4a/]
.	.	4e/	4g/
2G\	2B-i\	2.d/	1g
1D	1A	.	.
.	.	4c/	.
.	.	2d/	2f#i/
=165	=165	=165	=165
[0Gl	[0Gl	2B-i/	[0gl
.	.	2G/	.
.	.	2.B-i/	.
.	.	4c/	.
=166	=166	=166	=166
0G]	0G]	0dl	0g]
==	==	==	==
*-	*-	*-	*-
!!!RDF**kern: l=long note in original notation
!!!RDF**kern: i=editorial accidental
!!!RDF**kern: V=start of tuplet marker
!!!RDF**kern: Z=end of tuplet marker
!!!ENC:	Chris Gage 06-05-2012
!!!END:	2012/06/07/
!!!EED:	Jesse Rodin
!!!EEV:	2012/06/21/
!!attribution-level@Jos: 5 (doubtful)
!!!ONB:	Translated from MusicXML and edited on 2012/06/21/ by Craig Sapp
!!muse2ps: C^@{COA}?\n@{SCT}^i2I150v85,85,85,150c120Q8
